Lila_HD/actions/scalable/kstars_indi.svg

<?xml version="1.0" encoding="UTF-8" standalone="no"?>
<svg
   xmlns:dc="http://purl.org/dc/elements/1.1/"
   xmlns:cc="http://creativecommons.org/ns#"
   xmlns:rdf="http://www.w3.org/1999/02/22-rdf-syntax-ns#"
   xmlns:svg="http://www.w3.org/2000/svg"
   xmlns="http://www.w3.org/2000/svg"
   xmlns:xlink="http://www.w3.org/1999/xlink"
   xmlns:sodipodi="http://sodipodi.sourceforge.net/DTD/sodipodi-0.dtd"
   xmlns:inkscape="http://www.inkscape.org/namespaces/inkscape"
   viewBox="0 0 96 96"
   version="1.1"
   id="svg10"
   sodipodi:docname="kstars_indi.svg"
   inkscape:version="0.92.1 r15371">
  <metadata
     id="metadata14">
    <rdf:RDF>
      <cc:Work
         rdf:about="">
        <dc:format>image/svg+xml</dc:format>
        <dc:type
           rdf:resource="http://purl.org/dc/dcmitype/StillImage" />
      </cc:Work>
    </rdf:RDF>
  </metadata>
  <sodipodi:namedview
     pagecolor="#ffffff"
     bordercolor="#666666"
     borderopacity="1"
     objecttolerance="10"
     gridtolerance="10"
     guidetolerance="10"
     inkscape:pageopacity="0"
     inkscape:pageshadow="2"
     inkscape:window-width="1280"
     inkscape:window-height="972"
     id="namedview12"
     showgrid="false"
     inkscape:zoom="3.7931824"
     inkscape:cx="-12.776"
     inkscape:cy="46.945476"
     inkscape:window-x="0"
     inkscape:window-y="26"
     inkscape:window-maximized="1"
     inkscape:current-layer="g2574" />
  <defs
     id="defs3051">
    <style
       type="text/css"
       id="current-color-scheme">
      .ColorScheme-Text {
        color:#4d4d4d;
      }
      </style>
    <linearGradient
       inkscape:collect="always"
       xlink:href="#linearGradient6139-0"
       id="linearGradient4071"
       gradientUnits="userSpaceOnUse"
       gradientTransform="matrix(1.1071428,0,0,1.1071426,-4.9939026,-3.620687)"
       x1="6"
       y1="47.000011"
       x2="90"
       y2="47.000011" />
    <linearGradient
       id="linearGradient6139-0">
      <stop
         id="stop6141-2"
         offset="0"
         style="stop-color:#b2b9bc;stop-opacity:1" />
      <stop
         style="stop-color:#ffffff;stop-opacity:1;"
         offset="0.25"
         id="stop6151-0" />
      <stop
         style="stop-color:#96a0a4;stop-opacity:1"
         offset="0.5"
         id="stop6147-1" />
      <stop
         id="stop6149-4"
         offset="0.75"
         style="stop-color:#f9fafb;stop-opacity:1;" />
      <stop
         id="stop6143-4"
         offset="1"
         style="stop-color:#b2b9bc;stop-opacity:1" />
    </linearGradient>
    <linearGradient
       gradientTransform="translate(0.1489535,0.415026)"
       inkscape:collect="always"
       xlink:href="#linearGradient3832-0-6-1-1"
       id="linearGradient4129"
       x1="1.5"
       y1="88.171875"
       x2="94.5"
       y2="88.171875"
       gradientUnits="userSpaceOnUse" />
    <linearGradient
       id="linearGradient3832-0-6-1-1">
      <stop
         style="stop-color:#000000;stop-opacity:1;"
         offset="0"
         id="stop3834-6-3-7-1" />
      <stop
         id="stop3872-2-4"
         offset="0.1"
         style="stop-color:#000000;stop-opacity:0.58823532;" />
      <stop
         style="stop-color:#000000;stop-opacity:0.58823532;"
         offset="0.89999998"
         id="stop3844-6-2-7-6" />
      <stop
         style="stop-color:#000000;stop-opacity:1;"
         offset="1"
         id="stop3836-5-0-2-9" />
    </linearGradient>
    <radialGradient
       inkscape:collect="always"
       xlink:href="#linearGradient3737"
       id="radialGradient7462"
       gradientUnits="userSpaceOnUse"
       gradientTransform="matrix(0.97513378,0,0,0.04919072,34.047649,80.581722)"
       cx="13.948145"
       cy="44.892841"
       fx="13.948145"
       fy="44.892841"
       r="43.199203" />
    <linearGradient
       id="linearGradient3737">
      <stop
         offset="0"
         style="stop-color:#ffffff;stop-opacity:1"
         id="stop3739" />
      <stop
         offset="1"
         style="stop-color:#ffffff;stop-opacity:0"
         id="stop3741" />
    </linearGradient>
    <radialGradient
       inkscape:collect="always"
       xlink:href="#linearGradient3737"
       id="radialGradient7464"
       gradientUnits="userSpaceOnUse"
       gradientTransform="matrix(0.88832663,0,0,0.04919072,31.959518,-90.31726)"
       cx="13.948145"
       cy="44.892841"
       fx="13.948145"
       fy="44.892841"
       r="43.199203" />
    <linearGradient
       inkscape:collect="always"
       xlink:href="#linearGradient3737"
       id="linearGradient4767"
       gradientUnits="userSpaceOnUse"
       x1="2.7713892"
       y1="-28.64156"
       x2="50.527882"
       y2="14.514202" />
    <clipPath
       id="clipPath4156-4-1"
       clipPathUnits="userSpaceOnUse">
      <path
         inkscape:connector-curvature="0"
         id="path4158-0-8"
         d="m 27.046336,-55.695463 -14.21366,13.321486 h 0.06127 l 15.653407,21.770763 10.231384,-10.546177 C 38.561832,-32.30156 27.468089,-54.819245 27.046336,-55.695463 Z M 9.6468554,-39.382809 -5.2407289,-25.32124 15.987863,-7.8059573 26.372412,-18.382966 Z m 31.4906096,12.951445 -9.741259,9.713584 8.944804,12.4580526 7.780753,-7.5550056 z m -49.8397109,4.378822 -13.7541661,12.9822847 26.2830181,13.84571 0.06127,-0.0617 -0.122531,-0.0617 L 13.598503,-5.4007374 -8.7022409,-22.052595 Z m 38.0154159,7.400825 -9.802525,9.7752596 11.579232,9.5594001 7.62759,-7.40083 -8.669108,-11.0087257 z m 20.187073,5.6739697 -7.382526,7.2158 6.187844,8.54179 5.820249,-6.13651996 z m -32.195166,6.32154 -9.5574606,9.49772 13.6622686,7.1849703 7.933918,-7.6783603 z m 23.311629,2.37443004 -7.10683,6.93826996 8.362778,6.9074403 5.360756,-5.6739699 -0.06127,-0.0925 -0.0919,0.12335 -6.463539,-8.20258036 z m -8.730374,8.54178036 -7.505057,7.3391599 10.353916,5.45811 c 1.397496,-1.32103 5.67514,-6.12292 5.850882,-6.32154 z"
         style="opacity:0.6;fill:#ffffff;fill-opacity:1;stroke:none" />
    </clipPath>
  </defs>
  <g
     transform="translate(0,-1026.5197)"
     id="layer1"
     inkscape:label="Livello 1">
    <g
       id="g2574"
       style="display:inline"
       transform="translate(-0.14895645,1026.1047)">
      <path
         style="display:inline;opacity:0.15;fill:#000000;fill-opacity:1;fill-rule:nonzero;stroke:none"
         d="M 89.29181,0.415026 H 7.0060911 c -3.798848,0 -6.8571352,3.058285 -6.8571352,6.8571399 V 89.557884 c 0,3.798857 3.0582872,6.857142 6.8571352,6.857142 H 89.29181 c 3.798857,0 6.857147,-3.058285 6.857147,-6.857142 V 7.2721659 c 0,-3.7988549 -3.05829,-6.8571399 -6.857147,-6.8571399 z"
         id="path3288"
         inkscape:connector-curvature="0" />
      <path
         inkscape:connector-curvature="0"
         id="path4085"
         d="M 88.648954,1.165026 H 7.6489471 c -3.739492,0 -6.749993,3.010499 -6.749993,6.7499969 V 88.915026 c 0,3.739501 3.010501,6.75 6.749993,6.75 H 88.648954 c 3.739503,0 6.750003,-3.010499 6.750003,-6.75 V 7.9150229 c 0,-3.7394979 -3.0105,-6.7499969 -6.750003,-6.7499969 z"
         style="display:inline;opacity:0.15;fill:#000000;fill-opacity:1;fill-rule:nonzero;stroke:none" />
      <path
         style="display:inline;fill:url(#linearGradient4071);fill-opacity:1;fill-rule:nonzero;stroke:none"
         d="M 88.006093,1.915026 H 8.2918111 c -3.680143,0 -6.6428566,2.962713 -6.6428566,6.6428549 V 88.272171 c 0,3.680142 2.9627136,6.642856 6.6428566,6.642856 H 88.006093 c 3.680143,0 6.642854,-2.962714 6.642854,-6.642856 V 8.5578809 c 0,-3.6801419 -2.962711,-6.6428549 -6.642854,-6.6428549 z"
         id="rect4251-1"
         inkscape:connector-curvature="0" />
      <path
         style="display:inline;opacity:0.77864583;fill:#f5f3f3;fill-opacity:1;fill-rule:nonzero;stroke:none;stroke-width:1.02950251"
         d="m 11.390247,6.8021682 c -2.8564964,0 -5.1241284,2.2883782 -5.1241284,5.1710028 v 21.42734 7.239403 39.913674 c 1.0972399,1.684484 2.9688485,2.811732 5.1241284,2.811732 h 4.099303 65.588849 4.099302 c 2.155281,0 4.026889,-1.127248 5.124129,-2.811732 V 40.639914 33.400511 11.973171 c 0,-2.8826246 -2.267632,-5.1710028 -5.124129,-5.1710028 z"
         id="path3400-6"
         inkscape:connector-curvature="0"
         sodipodi:nodetypes="sscccsccscccsss" />
      <path
         inkscape:connector-curvature="0"
         id="path4989"
         d="m 9.9740341,5.1444869 c -3.116621,0 -5.667965,2.53951 -5.667965,5.6460041 v 69.277996 c 0,3.106495 2.551344,5.646004 5.667965,5.646004 H 86.765819 c 3.116621,0 5.667968,-2.539509 5.667968,-5.646004 V 10.790491 c 0,-3.1064931 -2.551347,-5.6460041 -5.667968,-5.6460041 z m 0,2.319439 H 86.765819 c 1.888099,0 3.352022,1.480095 3.352022,3.3265651 v 69.277996 c 0,1.846474 -1.463923,3.326564 -3.352022,3.326564 H 9.9740341 c -1.888099,0 -3.352022,-1.48009 -3.352022,-3.326564 V 10.790491 c 0,-1.8464701 1.463923,-3.3265651 3.352022,-3.3265651 z"
         style="color:#000000;font-style:normal;font-variant:normal;font-weight:normal;font-stretch:normal;font-size:medium;line-height:normal;font-family:Sans;-inkscape-font-specification:Sans;text-indent:0;text-align:start;text-decoration:none;text-decoration-line:none;letter-spacing:normal;word-spacing:normal;text-transform:none;writing-mode:lr-tb;direction:ltr;baseline-shift:baseline;text-anchor:start;display:inline;overflow:visible;visibility:visible;fill:#1f2224;fill-opacity:0.63265303;stroke:none;stroke-width:2.3755002;marker:none;enable-background:accumulate" />
      <path
         inkscape:connector-curvature="0"
         style="display:inline;opacity:0.65818182;fill:url(#linearGradient4129);fill-opacity:1;fill-rule:nonzero;stroke:none"
         d="m 1.6489535,82.258776 v 6 c 0,3.680142 2.9761066,6.65625 6.6562496,6.65625 H 87.992703 c 3.680143,0 6.656254,-2.976108 6.656254,-6.65625 v -6 c 0,3.680142 -2.976111,6.65625 -6.656254,6.65625 H 8.3052031 c -3.680143,0 -6.6562496,-2.976108 -6.6562496,-6.65625 z"
         id="path4118" />
      <rect
         style="opacity:0.55;fill:url(#radialGradient7462);fill-opacity:1;stroke:none"
         id="rect4131"
         width="84.250008"
         height="4.25"
         x="5.5239539"
         y="80.665031"
         rx="0"
         ry="4.25" />
      <rect
         ry="4.25"
         rx="0"
         y="-90.233963"
         x="5.9750223"
         height="4.25"
         width="76.75"
         id="rect4141"
         style="opacity:0.669;fill:url(#radialGradient7464);fill-opacity:1;stroke:none"
         transform="rotate(90)" />
      <g
         transform="translate(9.9320248,10.211015)"
         id="g91">
        <path
           inkscape:connector-curvature="0"
           id="path4"
           class="ColorScheme-Text"
           d="M 14.073283,3 25.390787,63.360018 H 47.271293 L 62.361298,3 Z m 6.036002,4.0240012 a 2.0120006,2.0120006 0 0 1 2.012001,2.0120006 2.0120006,2.0120006 0 0 1 -2.012001,2.0120002 2.0120006,2.0120006 0 0 1 -2.012,-2.0120002 2.0120006,2.0120006 0 0 1 2.012,-2.0120006 z m 28.168009,0 a 2.0120006,2.0120006 0 0 1 2.012,2.0120006 2.0120006,2.0120006 0 0 1 -2.012,2.0120002 2.0120006,2.0120006 0 0 1 -2.012001,-2.0120002 2.0120006,2.0120006 0 0 1 2.012001,-2.0120006 z M 37.832182,15.079863 A 12.072004,12.072004 0 0 1 50.187121,25.556413 12.072004,12.072004 0 0 1 39.804884,39.113838 12.072004,12.072004 0 0 1 26.247459,28.731601 12.072004,12.072004 0 0 1 36.629698,15.174175 a 12.072004,12.072004 0 0 1 1.202484,-0.09431 z m 6.421111,28.160149 a 2.0120006,2.0120006 0 0 1 2.012,2.012001 2.0120006,2.0120006 0 0 1 -2.012,2.012 2.0120006,2.0120006 0 0 1 -2.012001,-2.012 2.0120006,2.0120006 0 0 1 2.012001,-2.012001 z m -12.072004,8.048003 a 2.0120006,2.0120006 0 0 1 2.012001,2.012 2.0120006,2.0120006 0 0 1 -2.012001,2.012001 2.0120006,2.0120006 0 0 1 -2.012001,-2.012001 2.0120006,2.0120006 0 0 1 2.012001,-2.012 z"
           style="color:#4d4d4d;fill:currentColor;fill-opacity:1;stroke:none;stroke-width:4.02400112" />
        <path
           inkscape:connector-curvature="0"
           id="path6"
           class="ColorScheme-Text"
           d="M 72.091208,7.0240012 C 67.516184,6.9742424 57.00833,11.366072 46.021652,17.948536 a 12.072004,12.072004 0 0 1 2.79794,3.450266 c 7.811263,-5.201703 13.627228,-7.846792 15.341505,-6.05172 1.608393,1.684447 -1.084412,5.939716 -6.876958,12.127019 0.285704,0.479259 0.456221,1.068662 0.691625,1.564016 C 66.757741,20.277867 76.276407,9.895516 74.126785,7.6448921 73.736498,7.2360536 73.042595,7.0344636 72.091208,7.0240012 Z M 27.017678,31.623851 C 11.769345,44.694375 -0.44341285,60.22234 2.4178267,63.218551 c 0.5854917,0.612855 6.2442571,-0.938474 8.0558623,-1.807658 2.763815,-1.002781 7.276983,-2.860952 12.700754,-5.839518 l -0.337954,-1.815517 c -5.215541,2.593469 -8.897151,3.46283 -10.177894,2.122033 C 10.34722,53.457575 18.195894,45.492342 29.854913,35.836478 A 12.072004,12.072004 0 0 1 27.017678,31.623851 Z M 2.0012798,67.38402 v 4.024001 H 74.433302 V 67.38402 Z"
           style="color:#4d4d4d;fill:currentColor;fill-opacity:0.5;stroke:none;stroke-width:4.02400112" />
        <path
           inkscape:connector-curvature="0"
           id="path8"
           d="m 20.109285,7.0240012 a 2.0120006,2.0120006 0 0 0 -2.012,2.0120006 2.0120006,2.0120006 0 0 0 2.012,2.0120002 2.0120006,2.0120006 0 0 0 2.012001,-2.0120002 2.0120006,2.0120006 0 0 0 -2.012001,-2.0120006 z m 28.168009,0 a 2.0120006,2.0120006 0 0 0 -2.012001,2.0120006 2.0120006,2.0120006 0 0 0 2.012001,2.0120002 2.0120006,2.0120006 0 0 0 2.012,-2.0120002 2.0120006,2.0120006 0 0 0 -2.012,-2.0120006 z M 37.832182,15.079863 A 12.072004,12.072004 0 0 0 36.629698,15.174175 12.072004,12.072004 0 0 0 26.247459,28.731601 12.072004,12.072004 0 0 0 39.804884,39.113838 12.072004,12.072004 0 0 0 50.187121,25.556413 12.072004,12.072004 0 0 0 37.832182,15.079863 Z m 6.421111,28.160149 a 2.0120006,2.0120006 0 0 0 -2.012001,2.012001 2.0120006,2.0120006 0 0 0 2.012001,2.012 2.0120006,2.0120006 0 0 0 2.012,-2.012 2.0120006,2.0120006 0 0 0 -2.012,-2.012001 z m -12.072004,8.048003 a 2.0120006,2.0120006 0 0 0 -2.012001,2.012 2.0120006,2.0120006 0 0 0 2.012001,2.012001 2.0120006,2.0120006 0 0 0 2.012001,-2.012001 2.0120006,2.0120006 0 0 0 -2.012001,-2.012 z"
           style="fill:#fdbc4b;fill-opacity:1;stroke:none;stroke-width:4.02400112" />
      </g>
      <rect
         transform="matrix(1.0692451,0,0,1.0476829,4.4441802,38.894013)"
         style="opacity:0.5078125;fill:url(#linearGradient4767);fill-opacity:1;stroke:none"
         id="rect4146"
         width="75.965775"
         height="69.024437"
         x="2"
         y="-30"
         rx="3.9569874"
         ry="3.9569881"
         clip-path="url(#clipPath4156-4-1)" />
    </g>
  </g>
</svg>

<?xml version="1.0" encoding="UTF-8"?>
<svg version="1.1" viewBox="0 0 96 96" xmlns="http://www.w3.org/2000/svg" xmlns:cc="http://creativecommons.org/ns#" xmlns:dc="http://purl.org/dc/elements/1.1/" xmlns:rdf="http://www.w3.org/1999/02/22-rdf-syntax-ns#" xmlns:xlink="http://www.w3.org/1999/xlink">
<metadata>
<rdf:RDF>
<cc:Work rdf:about="">
<dc:format>image/svg+xml</dc:format>
<dc:type rdf:resource="http://purl.org/dc/dcmitype/StillImage"/>
</cc:Work>
</rdf:RDF>
</metadata>
<defs>
<style type="text/css">.ColorScheme-Text {
        color:#4d4d4d;
      }</style>
<linearGradient id="linearGradient4071" x1="6" x2="90" y1="47" y2="47" gradientTransform="matrix(1.1071 0 0 1.1071 -4.9939 -3.6207)" gradientUnits="userSpaceOnUse">
<stop stop-color="#b2b9bc" offset="0"/>
<stop stop-color="#fff" offset=".25"/>
<stop stop-color="#96a0a4" offset=".5"/>
<stop stop-color="#f9fafb" offset=".75"/>
<stop stop-color="#b2b9bc" offset="1"/>
</linearGradient>
<linearGradient id="linearGradient4129" x1="1.5" x2="94.5" y1="88.172" y2="88.172" gradientTransform="translate(.14895 .41503)" gradientUnits="userSpaceOnUse">
<stop offset="0"/>
<stop stop-opacity=".58824" offset=".1"/>
<stop stop-opacity=".58824" offset=".9"/>
<stop offset="1"/>
</linearGradient>
<radialGradient id="radialGradient7462" cx="13.948" cy="44.893" r="43.199" gradientTransform="matrix(.97513 0 0 .049191 34.048 80.582)" gradientUnits="userSpaceOnUse" xlink:href="#linearGradient3737"/>
<linearGradient id="linearGradient3737">
<stop stop-color="#fff" offset="0"/>
<stop stop-color="#fff" stop-opacity="0" offset="1"/>
</linearGradient>
<radialGradient id="radialGradient7464" cx="13.948" cy="44.893" r="43.199" gradientTransform="matrix(.88833 0 0 .049191 31.96 -90.317)" gradientUnits="userSpaceOnUse" xlink:href="#linearGradient3737"/>
<linearGradient id="linearGradient4767" x1="2.7714" x2="50.528" y1="-28.642" y2="14.514" gradientUnits="userSpaceOnUse" xlink:href="#linearGradient3737"/>
<clipPath id="clipPath4156-4-1">
<path d="m27.046-55.695-14.214 13.321h0.06127l15.653 21.771 10.231-10.546c-0.2169-1.1522-11.311-23.67-11.732-24.546zm-17.399 16.313-14.888 14.062 21.229 17.515 10.385-10.577zm31.491 12.951-9.7413 9.7136 8.9448 12.458 7.7808-7.555zm-49.84 4.3788-13.754 12.982 26.283 13.846 0.06127-0.0617-0.12253-0.0617 9.8332-10.053-22.301-16.652zm38.015 7.4008-9.8025 9.7753 11.579 9.5594 7.6276-7.4008-8.6691-11.009zm20.187 5.674-7.3825 7.2158 6.1878 8.5418 5.8202-6.1365zm-32.195 6.3215-9.5575 9.4977 13.662 7.185 7.9339-7.6784zm23.312 2.3744-7.1068 6.9383 8.3628 6.9074 5.3608-5.674-0.06127-0.0925-0.0919 0.12335-6.4635-8.2026zm-8.7304 8.5418-7.5051 7.3392 10.354 5.4581c1.3975-1.321 5.6751-6.1229 5.8509-6.3215z" fill="#fff" opacity=".6"/>
</clipPath>
</defs>
<g transform="translate(0 -1026.5)">
<g transform="translate(-.14896 1026.1)">
<path d="m89.292 0.41503h-82.286c-3.7988 0-6.8571 3.0583-6.8571 6.8571v82.286c0 3.7989 3.0583 6.8571 6.8571 6.8571h82.286c3.7989 0 6.8571-3.0583 6.8571-6.8571v-82.286c0-3.7989-3.0583-6.8571-6.8571-6.8571z" opacity=".15"/>
<path d="m88.649 1.165h-81c-3.7395 0-6.75 3.0105-6.75 6.75v81c0 3.7395 3.0105 6.75 6.75 6.75h81c3.7395 0 6.75-3.0105 6.75-6.75v-81c0-3.7395-3.0105-6.75-6.75-6.75z" opacity=".15"/>
<path d="m88.006 1.915h-79.714c-3.6801 0-6.6429 2.9627-6.6429 6.6429v79.714c0 3.6801 2.9627 6.6429 6.6429 6.6429h79.714c3.6801 0 6.6429-2.9627 6.6429-6.6429v-79.714c0-3.6801-2.9627-6.6429-6.6429-6.6429z" fill="url(#linearGradient4071)"/>
<path d="m11.39 6.8022c-2.8565 0-5.1241 2.2884-5.1241 5.171v68.58c1.0972 1.6845 2.9688 2.8117 5.1241 2.8117h73.787c2.1553 0 4.0269-1.1272 5.1241-2.8117v-68.58c0-2.8826-2.2676-5.171-5.1241-5.171z" fill="#f5f3f3" opacity=".77865"/>
<path d="m9.974 5.1445c-3.1166 0-5.668 2.5395-5.668 5.646v69.278c0 3.1065 2.5513 5.646 5.668 5.646h76.792c3.1166 0 5.668-2.5395 5.668-5.646v-69.278c0-3.1065-2.5513-5.646-5.668-5.646zm0 2.3194h76.792c1.8881 0 3.352 1.4801 3.352 3.3266v69.278c0 1.8465-1.4639 3.3266-3.352 3.3266h-76.792c-1.8881 0-3.352-1.4801-3.352-3.3266v-69.278c0-1.8465 1.4639-3.3266 3.352-3.3266z" color="#000000" fill="#1f2224" fill-opacity=".63265" style="text-decoration-line:none;text-indent:0;text-transform:none"/>
<path d="m1.649 82.259v6c0 3.6801 2.9761 6.6562 6.6562 6.6562h79.687c3.6801 0 6.6563-2.9761 6.6563-6.6562v-6c0 3.6801-2.9761 6.6562-6.6563 6.6562h-79.687c-3.6801 0-6.6562-2.9761-6.6562-6.6562z" fill="url(#linearGradient4129)" opacity=".65818"/>
<rect x="5.524" y="80.665" width="84.25" height="4.25" rx="0" ry="4.25" fill="url(#radialGradient7462)" opacity=".55"/>
<rect transform="rotate(90)" x="5.975" y="-90.234" width="76.75" height="4.25" rx="0" ry="4.25" fill="url(#radialGradient7464)" opacity=".669"/>
<g transform="translate(9.932 10.211)">
<path class="ColorScheme-Text" d="m14.073 3 11.318 60.36h21.881l15.09-60.36zm6.036 4.024a2.012 2.012 0 0 1 2.012 2.012 2.012 2.012 0 0 1-2.012 2.012 2.012 2.012 0 0 1-2.012-2.012 2.012 2.012 0 0 1 2.012-2.012zm28.168 0a2.012 2.012 0 0 1 2.012 2.012 2.012 2.012 0 0 1-2.012 2.012 2.012 2.012 0 0 1-2.012-2.012 2.012 2.012 0 0 1 2.012-2.012zm-10.445 8.0559a12.072 12.072 0 0 1 12.355 10.477 12.072 12.072 0 0 1-10.382 13.557 12.072 12.072 0 0 1-13.557-10.382 12.072 12.072 0 0 1 10.382-13.557 12.072 12.072 0 0 1 1.2025-0.09431zm6.4211 28.16a2.012 2.012 0 0 1 2.012 2.012 2.012 2.012 0 0 1-2.012 2.012 2.012 2.012 0 0 1-2.012-2.012 2.012 2.012 0 0 1 2.012-2.012zm-12.072 8.048a2.012 2.012 0 0 1 2.012 2.012 2.012 2.012 0 0 1-2.012 2.012 2.012 2.012 0 0 1-2.012-2.012 2.012 2.012 0 0 1 2.012-2.012z" color="#4d4d4d" fill="currentColor"/>
<path class="ColorScheme-Text" d="m72.091 7.024c-4.575-0.049759-15.083 4.3421-26.07 10.925a12.072 12.072 0 0 1 2.7979 3.4503c7.8113-5.2017 13.627-7.8468 15.342-6.0517 1.6084 1.6844-1.0844 5.9397-6.877 12.127 0.2857 0.47926 0.45622 1.0687 0.69162 1.564 8.782-8.7602 18.301-19.143 16.151-21.393-0.39029-0.40884-1.0842-0.61043-2.0356-0.62089zm-45.074 24.6c-15.248 13.071-27.461 28.598-24.6 31.595 0.58549 0.61286 6.2443-0.93847 8.0559-1.8077 2.7638-1.0028 7.277-2.861 12.701-5.8395l-0.33795-1.8155c-5.2155 2.5935-8.8972 3.4628-10.178 2.122-2.3114-2.4203 5.5373-10.386 17.196-20.041a12.072 12.072 0 0 1-2.8372-4.2126zm-25.016 35.76v4.024h72.432v-4.024z" color="#4d4d4d" fill="currentColor" fill-opacity=".5"/>
<path d="m20.109 7.024a2.012 2.012 0 0 0-2.012 2.012 2.012 2.012 0 0 0 2.012 2.012 2.012 2.012 0 0 0 2.012-2.012 2.012 2.012 0 0 0-2.012-2.012zm28.168 0a2.012 2.012 0 0 0-2.012 2.012 2.012 2.012 0 0 0 2.012 2.012 2.012 2.012 0 0 0 2.012-2.012 2.012 2.012 0 0 0-2.012-2.012zm-10.445 8.0559a12.072 12.072 0 0 0-1.2025 0.094312 12.072 12.072 0 0 0-10.382 13.557 12.072 12.072 0 0 0 13.557 10.382 12.072 12.072 0 0 0 10.382-13.557 12.072 12.072 0 0 0-12.355-10.477zm6.4211 28.16a2.012 2.012 0 0 0-2.012 2.012 2.012 2.012 0 0 0 2.012 2.012 2.012 2.012 0 0 0 2.012-2.012 2.012 2.012 0 0 0-2.012-2.012zm-12.072 8.048a2.012 2.012 0 0 0-2.012 2.012 2.012 2.012 0 0 0 2.012 2.012 2.012 2.012 0 0 0 2.012-2.012 2.012 2.012 0 0 0-2.012-2.012z" fill="#fdbc4b"/>
</g>
<rect transform="matrix(1.0692 0 0 1.0477 4.4442 38.894)" x="2" y="-30" width="75.966" height="69.024" rx="3.957" ry="3.957" clip-path="url(#clipPath4156-4-1)" fill="url(#linearGradient4767)" opacity=".50781"/>
</g>
</g>
</svg>
